packages/foundations/assets/icons/functional/images/audio & video/skip_backward_20.svg

<svg width="20" height="20" viewBox="0 0 20 20" fill="none" xmlns="http://www.w3.org/2000/svg">
<g clip-path="url(#clip0_2202_554)">
<path fill-rule="evenodd" clip-rule="evenodd" d="M14.984 4C15.2531 4.00105 15.5109 4.10843 15.7013 4.29874C15.8916 4.48905 15.9989 4.74686 16 5.016V15.003C16 15.55 15.57 16 15.003 16C14.8098 15.9993 14.6205 15.9453 14.456 15.844L8.213 11.349C7.99151 11.2003 7.80982 10.9995 7.68379 10.7644C7.55776 10.5292 7.49122 10.2668 7.49 10C7.49 9.453 7.764 8.945 8.213 8.632L14.417 4.176C14.5844 4.06241 14.7817 4.00115 14.984 4ZM14.007 6.853L9.784 10L14.007 13.147V6.853ZM5.993 14.007V5.993C5.99195 5.72917 5.88667 5.47644 5.70011 5.28989C5.51356 5.10333 5.26083 4.99805 4.997 4.997C4.449 4.997 4 5.447 4 5.994V14.007C4.00105 14.271 4.10647 14.5239 4.29324 14.7105C4.48001 14.8971 4.733 15.0022 4.997 15.003C5.544 15.003 5.993 14.553 5.993 14.007Z" fill="#1A1C1F"/>
</g>
<defs>
<clipPath id="clip0_2202_554">
<rect width="20" height="20" fill="white"/>
</clipPath>
</defs>
</svg>

<svg xmlns="http://www.w3.org/2000/svg" width="20" height="20" fill="none"><g clip-path="url(#a)"><path fill="#1A1C1F" fill-rule="evenodd" d="M14.984 4A1.02 1.02 0 0 1 16 5.016v9.987c0 .547-.43.997-.997.997a1.05 1.05 0 0 1-.547-.156l-6.243-4.495A1.63 1.63 0 0 1 7.49 10c0-.547.274-1.055.723-1.368l6.204-4.456A1 1 0 0 1 14.984 4m-.977 2.853L9.784 10l4.223 3.147zm-8.014 7.154V5.993a1 1 0 0 0-.996-.996c-.548 0-.997.45-.997.997v8.013a1 1 0 0 0 .997.996 1 1 0 0 0 .996-.996" clip-rule="evenodd"/></g><defs><clipPath id="a"><path fill="#fff" d="M0 0h20v20H0z"/></clipPath></defs></svg>
